X:9
T:Bob McQuillen's
R:reel
N:composed as a hornpipe, performed as a reel
C:Aly Bain
O:20th Century Shetland
S:Silver Apple News, 2004
D:Tommy Peoples, Waiting for a Call
Z:Paul Stewart Cranford (P.S.C.), <http://www.cranfordpub.com>
Q:333
L:1/8
M:C|
K:G
A|~B3 c dcBA|GABG DB,G,B|cBcd edcB|(3(ABA) (3(GFE) D2 dc|
~B3 c dcBA|GABG DB,G,B,|CGEC DcAF|GFFA G3:|
|:B|d2 Bd ~g3 f|eccB c2 AB|cA A/A/A agag|fddc dcBc|
d2 Bd ~g3 f|ec c2 efge|dBGB cAFG|AGGF G3:|
